X: 9
T: Imperaritz
B: Llibre Vermeil
H: 14th Century
F:http://www.cervantesvirtual.com/s3/BVMC_OBRAS/ff6/fe3/e28/2b1/11d/fac/c70/021/85c/e60/64/mimes/imagenes/ff6fe3e2-82b1-11df-acc7-002185ce6064_127.jpg
F:http://www.cervantesvirtual.com/s3/BVMC_OBRAS/ff6/fe3/e28/2b1/11d/fac/c70/021/85c/e60/64/mimes/imagenes/ff6fe3e2-82b1-11df-acc7-002185ce6064_240.jpg
Z:Ali Corbin <ali.corbin:gmail.com>
N: 
M: 6/4
L: 1/4
Q: 1/4=160
K: D Dorian
V:1
%%MIDI program 1	74 recorder
%%MIDI program 2	79 ocarina
%
V:1 clef=treble
 (D2E) (FE)  D | C3 (E2F)|G2   F E2   D|(CEDA,DC)|D6|
w:Im-*  pe-*ray-ritz de*  la ciu-tat jo-yo-*****  sa,
w:Ro-*  sa* fla-gran de*  ve-ra  be- ne-nan-***** ça
w:Flor* de* les flors dol-*ça cle-ment et pi-***** a
  A3 B2  B|c3  B3| B2  B   (AE) (A/G/)|A6|
w:De pa-ra-dis ab tot gaug' e-*  ter-* nal,
w:Fons de mer-cé ia-mays ne de-* fal-* len.
w:L'an-gel de dieu ve-sém tot cor-*ro-*cat
 (c2B/A/)G2  F| E3    C3| D2  C   D2 D| (EFDCD2)|E6|
w:Ne-**  ta de crims, de vir-tuts ha-bun-do-**** sa,
w:Pa-**lays d'o-nor   on se  fech l'a-li-an-**** ça
w:E**  par que dieus la-men-dat qu'ens al-ci-****a
  F3 (GF)   G|(A2G/F/) E3 |(FE) D  A, (DC)|D6|
w:May-res* de  Dieu**  per  o-*bra di- vi-*nal.
w:De deu*  e  d'hom**  per nos-*tre sal-va-*men.
w:Don ell* es prest**  ab le-*stoch af-fi-*lat
 (A2B) (AG)   F | E3  F3| E2  F G2  G|(A2G/F/EAG|A6)|
w:Ver-* ges* pla-sen, ab fas an-ge-li- cal,******
w:E*    fo*  ver dieus es hom per-fe-ta-men.******
w:Don-*chos* pla-ça   vos que'l sia co-man-dat******
 (c2B/A/) G2  F | E3 C3| D2   C    D2 D|(EFDCD2)|E6|
w:A-**    xi com sotz a Dieu molt gra-ci-o-****  sa,
w:Ses**   de-fal-lir en al-  cu-  na sub-stan-****ça
w:Qu'es-**toyg l'es-toch e que re-mes nos di-**** a
 (A2B) (AG)   F|E3  F3 | E2 F   G2  G|(A2G/F/EAG)|A6|
w:Pla-*caus* e-star als fi-zels pi- a  do-*****  sa,
w:E*  se-* gons hom mo-ri se-nes dub-tan-*****   ça
w:Tot* fal-*li-  men tro en lu  pre-sen di-*****a
 (c2B/A/) G2   F | E3 F3| G2  F  E2 D|(CEDA,DC)|D6||
w:Pre-** gant per lor ai Rey ce-les-ti-al.******
w:E**    com ver dieus le-vech dei mo-ni-men.******
w:Ens**  do- ne  gaug  e  patz e   san-i-tat******
%
V:2 clef=treble_8
  D,3 D,2  D,|A,3 A,3|G,2 G, G,2 G,|A,2 F,2 E,2|D,6|
w:Ver-ges ses par mi- ser-i- cor-di-o-  *   *   sa
w:Ve-xell de pats co-ro- na  des-pe-ran-*   *   ça
w:Es-tel  de mar  qui los pe-ril-lans gui-* *   a
  D3  D2  D| C3    E3 |D2  C  C2  B,|A,6|
w:De vos se tany quens de-fe-nats de mal
w:Port de sa-lut  be   se-gur de tot ven
w:E'ls fay ve-nir a   bo-na   sal-ve-tat
  F,3 G,2  G, |A,3 A,3|B,2 A, G,2 F,|E,2 G,2 F,2|E,6|
w:Et  no siats de- vas nos en-de-ny- o-  *   *   sa
w:Vos me-re-  xets de  te-nir la ba-lan- *   *   ça
w:Si Je-su  Christ o-  be-hir no vo-li-  *   *   a
  A,3   C2 B,|A,3   G,3|A,2 F, G, E,2|D,6|
w:Pels fal-li-ments que fem en ge-ne- ral.
w:On   es  pe-sat   be  drey-tu-re-ra-men
w:Co   que per vos  li  se-  ra sup-pli-cat
  D,3 A,2    B,|C3   D3|E2  D  C2  B,|A,2 C2 B,2|A,6|
w:Mas quens cu-brats ab lo man-to re- al  *   *  *
w:E   pe-   sa mays vos-tre fill ex-cel-len*   *  *
w:Mo-strats lils pits don l'a-vets al-le-tat* * *
  F,3 G,2 G,|A,3 A,3|B,2  A,  G,2 F,|E,2 G,2 F,2|E,6|
w:De  pi- et-at  pus quen ets cu-pi- o-  *   *   sa
w:Mort en la crots per nos-tra de-liv-ran-*  *   ça
w:Et tots los sants ab la gran je-rar-qui-    *  *   a
  D,3 A,2  B,| C3   D3 |E2   D  C2  B,|A,2 C2 B,2|A,6|
w:Car tots em fayts d'a-vol pas-ta fan-go- *  *   sa
w:Quels pec-cats d'om en fayt en co-be-jan-*  *   ça.
w:De  pa- ra-dis qui~us  fa- ran com-pa-ny-*  *   a
  F,3 G,2    G,|A,3 A,3|G,2  G, G,2 G,|G,2 F,2 E,2|D,6||
w:Per que'l fal-lir es  de  carn hu-me-nal.*   *   *
w:Al  be    fi- dei con-fes  e   pe-ni-dén.*   *   *
w:Tot quan  vol-rets vos er ben  au-tre-yat.*  *   *
